fs/password_24_filled.svg

<svg viewBox="0 0 24 24" fill="none" xmlns="http://www.w3.org/2000/svg" height="1em" width="1em">
  <path d="M5.24923 5C3.454 5 2 6.45538 2 8.25V15.75C2 17.5449 3.45507 19 5.25 19H18.75C20.5449 19 22 17.5449 22 15.75V8.25C22 6.45538 20.546 5 18.7508 5H5.24923ZM6.28021 10.2195L7.00017 10.9392L7.71967 10.2197C8.01256 9.92678 8.48743 9.92678 8.78033 10.2197C9.07322 10.5126 9.07322 10.9874 8.78033 11.2803L8.06108 11.9996L8.7802 12.7184C9.07317 13.0112 9.07328 13.4861 8.78046 13.779C8.48763 14.072 8.01276 14.0721 7.71979 13.7793L7.00042 13.0602L6.28033 13.7803C5.98744 14.0732 5.51256 14.0732 5.21967 13.7803C4.92678 13.4874 4.92678 13.0126 5.21967 12.7197L5.93951 11.9998L5.21979 11.2805C4.92683 10.9876 4.92672 10.5128 5.21954 10.2198C5.51237 9.92683 5.98724 9.92672 6.28021 10.2195ZM11.7802 10.2195L12.5002 10.9392L13.2197 10.2197C13.5126 9.92678 13.9874 9.92678 14.2803 10.2197C14.5732 10.5126 14.5732 10.9874 14.2803 11.2803L13.5611 11.9996L14.2802 12.7184C14.5732 13.0112 14.5733 13.4861 14.2805 13.779C13.9876 14.072 13.5128 14.0721 13.2198 13.7793L12.5004 13.0602L11.7803 13.7803C11.4874 14.0732 11.0126 14.0732 10.7197 13.7803C10.4268 13.4874 10.4268 13.0126 10.7197 12.7197L11.4395 11.9998L10.7198 11.2805C10.4268 10.9876 10.4267 10.5128 10.7195 10.2198C11.0124 9.92683 11.4872 9.92672 11.7802 10.2195ZM15.75 14.25C15.75 13.8358 16.0858 13.5 16.5 13.5H18.25C18.6642 13.5 19 13.8358 19 14.25C19 14.6642 18.6642 15 18.25 15H16.5C16.0858 15 15.75 14.6642 15.75 14.25Z" fill="#212121"/>
</svg>

<svg viewBox="0 0 24 24" fill="none" xmlns="http://www.w3.org/2000/svg" height="1em" width="1em">
  <path d="M5.25 5A3.25 3.25 0 0 0 2 8.25v7.5A3.25 3.25 0 0 0 5.25 19h13.5A3.25 3.25 0 0 0 22 15.75v-7.5A3.25 3.25 0 0 0 18.75 5H5.25Zm1.03 5.22.72.72.72-.72a.75.75 0 1 1 1.06 1.06l-.719.72.72.718A.75.75 0 1 1 7.72 13.78L7 13.06l-.72.72a.75.75 0 0 1-1.06-1.06l.72-.72-.72-.72a.75.75 0 0 1 1.06-1.06Zm5.5 0 .72.72.72-.72a.75.75 0 1 1 1.06 1.06l-.719.72.72.718a.75.75 0 1 1-1.061 1.061l-.72-.719-.72.72a.75.75 0 1 1-1.06-1.06l.72-.72-.72-.72a.75.75 0 0 1 1.06-1.06Zm3.97 4.03a.75.75 0 0 1 .75-.75h1.75a.75.75 0 0 1 0 1.5H16.5a.75.75 0 0 1-.75-.75Z" fill="#212121"/>
</svg>
